X: 8625
T: Crooked Road To Dublin, The
R: reel
M: 4/4
K: Gmajor
G3G FGAF|G2FG AdcA|G2AG FGAg|1 fdcA dBcA:|2 fdcA d2Bc||
dg~g2 fgaf|dg~g2 agfe|dg~g2 fgag|fdcA d2Bc|
dg~g2 fgaf|dg~g2 a2ga|bgaf gbag|fdcA d2cA||

